apps/web/src/assets/svgs/image.svg

<?xml version="1.0" encoding="UTF-8" standalone="no"?>
<!-- Created with Inkscape (http://www.inkscape.org/) -->

<svg
   width="8mm"
   height="8mm"
   viewBox="0 0 8 8"
   version="1.1"
   id="svg1"
   sodipodi:docname="image_flat.svg"
   inkscape:version="1.3.2 (091e20ef0f, 2023-11-25)"
   xmlns:inkscape="http://www.inkscape.org/namespaces/inkscape"
   xmlns:sodipodi="http://sodipodi.sourceforge.net/DTD/sodipodi-0.dtd"
   xmlns="http://www.w3.org/2000/svg"
   xmlns:svg="http://www.w3.org/2000/svg">
  <sodipodi:namedview
     id="namedview1"
     pagecolor="#ffffff"
     bordercolor="#000000"
     borderopacity="0.25"
     inkscape:showpageshadow="2"
     inkscape:pageopacity="0.0"
     inkscape:pagecheckerboard="0"
     inkscape:deskcolor="#d1d1d1"
     inkscape:document-units="mm"
     inkscape:zoom="21.797557"
     inkscape:cx="18.396557"
     inkscape:cy="20.736269"
     inkscape:window-width="2560"
     inkscape:window-height="1515"
     inkscape:window-x="0"
     inkscape:window-y="1415"
     inkscape:window-maximized="1"
     inkscape:current-layer="layer1" />
  <defs
     id="defs1" />
  <g
     inkscape:label="Capa 1"
     inkscape:groupmode="layer"
     id="layer1"
     transform="translate(-177.29236,-75.332344)">
    <path
       id="rect152-1"
       style="color:#000000;fill:#000000;stroke-linejoin:round;-inkscape-stroke:none"
       d="M 178.24992 75.57419 C 177.85897 75.57419 177.53524 75.897923 177.53524 76.288875 L 177.53524 82.374808 C 177.53524 82.76576 177.85897 83.09001 178.24992 83.09001 L 184.33586 83.09001 C 184.72681 83.09001 185.05054 82.76576 185.05054 82.374808 L 185.05054 76.288875 C 185.05054 75.897923 184.72681 75.57419 184.33586 75.57419 L 178.24992 75.57419 z M 178.24992 76.154516 L 184.33586 76.154516 C 184.41526 76.154516 184.46867 76.20952 184.46867 76.288875 L 184.46867 79.738277 L 183.16229 78.431896 A 0.2419317 0.2419317 0 0 0 182.82019 78.431896 L 180.63893 80.613159 L 179.48654 79.460774 A 0.2419317 0.2419317 0 0 0 179.14444 79.460774 L 178.11505 80.490685 L 178.11505 76.288875 C 178.11505 76.209525 178.17055 76.154516 178.24992 76.154516 z M 179.94129 76.709004 C 179.39955 76.709004 178.95531 77.153775 178.95531 77.695507 C 178.95531 78.237241 179.39955 78.681494 179.94129 78.681494 C 180.48302 78.681494 180.9278 78.237241 180.9278 77.695507 C 180.9278 77.153775 180.48302 76.709004 179.94129 76.709004 z M 179.94129 77.193212 C 180.22155 77.193212 180.44359 77.415248 180.44359 77.695507 C 180.44359 77.975768 180.22155 78.197285 179.94129 78.197285 C 179.66103 78.197285 179.43952 77.975768 179.43952 77.695507 C 179.43952 77.415248 179.66103 77.193212 179.94129 77.193212 z M 182.99227 78.94556 L 184.46867 80.421956 L 184.46867 82.374808 C 184.46867 82.454168 184.41517 82.509684 184.33586 82.509684 L 178.24992 82.509684 C 178.17052 82.509684 178.11505 82.454164 178.11505 82.374808 L 178.11505 81.173848 L 179.31653 79.974438 L 180.46684 81.126822 A 0.2419317 0.2419317 0 0 0 180.80842 81.126822 L 182.99227 78.94556 z " />
  </g>
</svg>

<svg xmlns="http://www.w3.org/2000/svg" width="8mm" height="8mm" viewBox="0 0 8 8"><path d="M178.25 75.574a.72.72 0 0 0-.715.715v6.086a.72.72 0 0 0 .715.715h6.086a.72.72 0 0 0 .715-.715v-6.086a.72.72 0 0 0-.715-.715zm0 .58h6.086c.08 0 .133.056.133.135v3.45l-1.307-1.307a.24.24 0 0 0-.342 0l-2.181 2.181-1.152-1.152a.24.24 0 0 0-.343 0l-1.029 1.03v-4.202c0-.08.056-.134.135-.134m1.691.555a.99.99 0 0 0-.986.987.99.99 0 0 0 .986.985.99.99 0 0 0 .987-.985.99.99 0 0 0-.987-.987m0 .484c.28 0 .503.222.503.503 0 .28-.222.501-.503.501a.5.5 0 0 1-.501-.501c0-.28.221-.503.501-.503m3.051 1.753 1.477 1.476v1.953c0 .08-.054.135-.133.135h-6.086a.13.13 0 0 1-.135-.135v-1.201l1.202-1.2 1.15 1.153a.24.24 0 0 0 .341 0z" style="color:#000;fill:#000;stroke-linejoin:round;-inkscape-stroke:none" transform="translate(-177.292 -75.332)"/></svg>
